app/assets/images/chevron-extend-hover.svg

<svg xmlns="http://www.w3.org/2000/svg" xmlns:xlink="http://www.w3.org/1999/xlink" width="169" height="109">
  <defs>
    <path id="a" d="M0 0h90v109H0z"/>
  </defs>
  <g fill="none" fill-rule="evenodd">
    <mask id="b" fill="#fff">
      <use xlink:href="#a"/>
    </mask>
    <path fill="#B31424" fill-rule="nonzero" vector-effect="non-scaling-stroke" stroke="#FFF" stroke-width="2" d="M-1.99665164 1l.35767626 107H38.7689834c.559783 0 1.0939457-.234599 1.4726965-.646795l46.5342804-50.6433632c1.0548793-1.1480275 1.054571-2.9127293-.0007095-4.0603881L39.8774704 1.64628002C39.4987402 1.2343961 38.9647868 1 38.4052469 1H-1.99665164z" mask="url(#b)"/>
    <path fill="#B31424" fill-rule="nonzero" vector-effect="non-scaling-stroke" stroke="#FFF" stroke-width="2" d="M80.2593567 2.67189843L125.611237 52.6639273c1.037118 1.1432316 1.037466 2.8868605.000802 4.0305048L80.6210236 106.328396c-.3709165.409194-.3398864 1.041599.0693073 1.412515.1839444.166737.4233355.259089.6716035.259089h36.8923286c.559784 0 1.093946-.234599 1.472697-.646795l46.534281-50.643363c1.054879-1.1480276 1.05457-2.9127296-.000709-4.0603883L119.36275 1.64627982C118.98402 1.23439602 118.450067 1 117.890527 1H81c-.5522848 0-1 .44771525-1 1 0 .24840526.0924536.48791876.2593567.67189844z"/>
  </g>
</svg>

<svg width="169px" height="109px" viewBox="0 0 169 109" version="1.1" xmlns="http://www.w3.org/2000/svg" xmlns:xlink="http://www.w3.org/1999/xlink">
    <defs>
        <rect id="path-1" x="0" y="0" width="90" height="109"></rect>
    </defs>
    <g id="Page-1" vector-effect="non-scaling-stroke" stroke="none" stroke-width="2" fill="none" fill-rule="evenodd">
        <g id="Group">
            <g id="Fill-1-Copy-5">
                <mask id="mask-2" fill="white">
                    <use xlink:href="#path-1"></use>
                </mask>
                <g id="Mask"></g>
                <path d="M-1.99665164,1 L-1.63897538,108 L38.7689834,108 C39.3287664,108 39.8629291,107.765401 40.2416799,107.353205 L86.7759603,56.7098418 C87.8308396,55.5618143 87.8305313,53.7971125 86.7752508,52.6494537 L39.8774704,1.64628002 C39.4987402,1.2343961 38.9647868,1 38.4052469,1 L-1.99665164,1 Z" stroke="#FFFFFF" vector-effect="non-scaling-stroke" stroke-width="2" fill="#B31424" fill-rule="nonzero" mask="url(#mask-2)"></path>
            </g>
            <path d="M80.2593567,2.67189843 L125.611237,52.6639273 C126.648355,53.8071589 126.648703,55.5507878 125.612039,56.6944321 L80.6210236,106.328396 C80.2501071,106.73759 80.2811372,107.369995 80.6903309,107.740911 C80.8742753,107.907648 81.1136664,108 81.3619344,108 L118.254263,108 C118.814047,108 119.348209,107.765401 119.72696,107.353205 L166.261241,56.709842 C167.31612,55.5618144 167.315811,53.7971124 166.260532,52.6494537 L119.36275,1.64627982 C118.98402,1.23439602 118.450067,1 117.890527,1 L81,1 C80.4477152,1 80,1.44771525 80,2 C80,2.24840526 80.0924536,2.48791876 80.2593567,2.67189844 Z" id="Fill-1-Copy-4" vector-effect="non-scaling-stroke" stroke="#FFFFFF" stroke-width="2" fill="#B31424" fill-rule="nonzero"></path>
        </g>
    </g>
</svg>
